X:1
T:Hampstead (Davies), 88.88.6
T:Hampstead (Davies), 88.88.6
T:Henry Walford Davies, 1915
T:Public Domain Courtesy of the Cyber Hymnal™
C:Henry Walford Davies, 1915
Z:Public Domain
Z:Courtesy of the Cyber Hymnal™
%%score ( 1 2 ) ( 3 4 )
L:1/8
Q:1/4=110
M:none
K:G
V:1 treble 
V:2 treble 
V:3 bass 
V:4 bass 
V:1
 ([B,D]2 [DG]2) | B3 z B [Fd]2 [Ec]2 | [GA]2 [FB]2 G3 [EG] | [DF]2 [CE]2 [B,G]2 [CE]2 | %4
 [B,E]2 (F^D) [B,E]3 [B,E] | [^DF]2 [EG]2 [EB]2 [EA]2 | c3 z A [DF]2 G2 | [FA]2 [GB]2 [Gd]2 c2 | %8
 [Ee]2 (cA) [EF]2 | G2 [FA]2 [GB]2 | c6 z2 B2 | [GB]4 |] %12
V:2
 x4 | G2 G2 x5 | x4 G3 x | x8 | x2 B,2 x4 | x8 | A2 (E2 x D)E x2 | x6 GF | x2 E2 x2 | (DE) x4 | %10
 G4 F4 x2 | x4 |] %12
V:3
 (G,2 B,2) | [G,D]2 [G,D]2 [B,,D]2 [C,G,]2 x | [E,C]2 [D,D]2 [G,B,]3 [E,B,] | %3
 [B,,B,]2 [C,G,]2 [G,,E,]2 [A,,F,]2 | [B,,G,]2 (A,F,) [E,G,]3 G, | %5
 [F,A,]2 [E,B,]2 [D,G,]2 ([C,A,][B,,C]) | E3 z C [D,A,]2 [B,D]2 | [A,C]2 [G,B,]2 [E,B,]2 C2 | %8
 [C,C]2 (EC) [C,A,]2 | [B,,D]2 [D,C]2 [G,B,]2 | [A,C]6 z2 [B,D]2 | [G,,D,B,D]4 |] %12
V:4
 G,4 | x9 | x8 | x8 | x2 B,,2 x2 G, x | x8 | A,,2 C,2 x5 | x6 E,D, | x2 C,2 x2 | x6 | E,4 D,4 x2 | %11
 x4 |] %12

